templates/main/source/images/maestro.svg

<?xml version="1.0" encoding="utf-8"?>
<svg width="39px" height="24px" viewBox="0 0 39 24" version="1.1" xmlns:xlink="http://www.w3.org/1999/xlink" xmlns="http://www.w3.org/2000/svg">
  <desc>Created with Lunacy</desc>
  <g id="maestro">
    <path d="M19.296 20.2C21.7051 17.9894 23.0765 14.8697 23.0765 11.6C23.0765 8.33037 21.7051 5.21063 19.296 3.00001C17.1997 1.06704 14.4515 -0.00424741 11.6 1.26568e-05C5.1935 1.26568e-05 7.88258e-16 5.19351 0 11.6C-7.88258e-16 18.0065 5.1935 23.2 11.6 23.2C14.4515 23.2043 17.1997 22.133 19.296 20.2Z" id="Path" fill="#009DDD" stroke="none" />
    <path d="M2.84217e-15 17.2C2.40909 14.9894 3.78051 11.8696 3.78051 8.6C3.78051 5.33036 2.40909 2.21062 0 0L0 17.2L2.84217e-15 17.2Z" transform="translate(19.295898 3)" id="Path" fill="#009DDD" stroke="none" />
    <path d="M11.256 5.44012e-07C8.398 -0.000880955 5.64347 1.06953 3.536 3C3.13178 3.38599 2.74983 3.79465 2.392 4.224L4.712 4.224C5.024 4.608 5.32 5.024 5.592 5.448L1.512 5.448C1.26667 5.85867 1.04267 6.26667 0.84 6.672L6.24 6.672C6.424 7.08 6.6 7.472 6.736 7.896L0.336 7.896C0.200341 8.30527 0.0881582 8.72195 0 9.144L7.048 9.144C7.21199 9.9524 7.29507 10.7751 7.296 11.6C7.29786 12.8499 7.10073 14.0921 6.712 15.28L0.336 15.28C0.469333 15.6907 0.626667 16.0987 0.808 16.504L6.208 16.504C6.01164 16.9236 5.79265 17.3322 5.552 17.728L1.512 17.728C1.77948 18.154 2.07339 18.5628 2.392 18.952L4.712 18.952C4.35026 19.3955 3.95726 19.8126 3.536 20.2C6.90677 23.2827 11.786 24.0702 15.9554 22.2044C20.1248 20.3386 22.7887 16.1756 22.736 11.608C22.753 8.54633 21.5531 5.6033 19.4001 3.42636C17.2472 1.24943 14.3177 0.0169274 11.256 5.44012e-07Z" transform="translate(15.759766 0)" id="Path" fill="#ED1B2E" stroke="none" />
    <path d="M6.264 5.888L4.824 5.888L5.672 1.36L3.72 5.888L2.504 5.888L2.256 1.384L1.312 5.888L0 5.888L1.104 0L3.384 0L3.4 3.64L4.976 0L7.384 0L6.264 5.888L6.264 5.888L6.264 5.888Z" transform="translate(3.5361328 8.952148)" id="Path" fill="#003473" stroke="none" />
    <path d="M2.16 5.816C1.82563 5.91932 1.47796 5.97323 1.128 5.976C0.408 5.976 0 5.616 0 4.928C0.00481414 4.78298 0.0208622 4.63854 0.048 4.496L0.136 4.016L0.2 3.656L0.856 0L2.272 0L2.08 1.088L2.8 1.088L2.616 2.248L1.872 2.248L1.488 4.248C1.488 4.336 1.488 4.408 1.488 4.456C1.488 4.704 1.648 4.8 1.984 4.8C2.11395 4.81116 2.24479 4.79481 2.368 4.752L2.184 5.816L2.16 5.816Z" transform="translate(23.61621 8.952148)" id="Path" fill="#003473" stroke="none" />
    <path d="M0.528 1.6C0.528 2.192 0.864 2.624 1.608 2.92C2.216 3.168 2.304 3.24 2.304 3.464C2.304 3.688 2.032 3.896 1.504 3.896C1.06142 3.89181 0.621924 3.82171 0.2 3.688L0 4.8L0.064 4.8L0.336 4.848C0.461294 4.88102 0.590434 4.89716 0.72 4.896C1.056 4.896 1.328 4.944 1.52 4.944C3.048 4.944 3.752 4.448 3.752 3.344C3.75779 2.71084 3.31577 2.16166 2.696 2.032C2.088 1.808 2.024 1.736 2.024 1.512C2.024 1.288 2.272 1.128 2.72 1.128C3.07307 1.1322 3.42563 1.15624 3.776 1.2L3.976 0.112C3.5527 0.0430074 3.12485 0.005571 2.696 0C1.096 0 0.512 0.752 0.536 1.6L0.528 1.6Z" transform="translate(19.56836 9.967773)" id="Path" fill="#003473" stroke="none" />
    <path d="M2.79414 4.968L3.98614 4.968L4.00214 4.904L4.00214 4.608L4.05014 4.36L4.09814 4.04L4.39414 2.36C4.47591 2.04895 4.52154 1.72951 4.53014 1.408C4.53014 0.496 3.88214 0 2.64214 0C2.06114 0.00523351 1.48415 0.0969043 0.930137 0.272L0.730136 1.344L0.866136 1.344L1.06614 1.272C1.44999 1.18802 1.84125 1.14246 2.23414 1.136C2.90614 1.136 3.15414 1.272 3.15414 1.592C3.15443 1.69263 3.13822 1.79262 3.10614 1.888C2.9116 1.87793 2.71667 1.87793 2.52214 1.888C0.922136 1.888 0.00213644 2.568 0.00213644 3.728C-0.0183192 4.07622 0.108841 4.41696 0.352433 4.66664C0.596024 4.91632 0.933515 5.05185 1.28214 5.04C1.84466 5.07891 2.39636 4.87166 2.79414 4.472L2.79414 4.968ZM2.68214 2.832C2.79392 2.82222 2.90635 2.82222 3.01814 2.832L3.01814 2.856C3.04463 3.15129 2.94947 3.44461 2.75466 3.66811C2.55986 3.89161 2.28228 4.02593 1.98614 4.04C1.85086 4.05657 1.71515 4.01283 1.61501 3.92039C1.51487 3.82795 1.46043 3.69616 1.46614 3.56C1.46614 3.08 1.88214 2.832 2.68214 2.832Z" transform="translate(10.4453125 9.87207)" id="Shape" fill="#003473" fill-rule="evenodd" stroke="none" />
    <path d="M2.41147 5.02164C2.90691 5.02273 3.39994 4.95269 3.87547 4.81364L3.90747 4.77364L4.15547 3.56564C3.68891 3.78005 3.18092 3.88929 2.66747 3.88564C1.82747 3.88564 1.40347 3.58964 1.40347 3.04564C1.39522 2.99263 1.39522 2.93866 1.40347 2.88564L4.24347 2.88564C4.34798 2.51342 4.39915 2.12825 4.39547 1.74164C4.40173 1.24407 4.19219 0.768168 3.82094 0.436809C3.4497 0.105451 2.95314 -0.0488864 2.45947 0.0136441C1.75229 0.053987 1.09194 0.38024 0.630222 0.917403C0.168503 1.45457 -0.0548637 2.15643 0.0114696 2.86164C0.0114696 4.26964 0.81147 5.02164 2.41147 5.02164ZM3.20347 1.72564L3.20347 1.97364L1.61147 1.97364C1.73147 1.40564 2.08347 1.10964 2.53147 1.10964C2.70607 1.08561 2.88231 1.14062 3.01224 1.25972C3.14216 1.37882 3.21226 1.54961 3.20347 1.72564Z" transform="translate(15.236328 9.9140625)" id="Shape" fill="#003473" fill-rule="evenodd" stroke="none" />
    <path d="M4.15114 4.4951C4.67277 4.06242 4.99674 3.43677 5.04904 2.76107C5.08832 2.56632 5.10443 2.3676 5.09704 2.16907C5.12277 1.56872 4.8876 0.986573 4.4521 0.57254C4.0166 0.158508 3.42332 -0.0469518 2.82504 0.0090672C2.06163 -0.0337286 1.31646 0.252573 0.778094 0.795523C0.239732 1.33847 -0.0402353 2.08605 0.00903758 2.84907C-0.0489419 3.46214 0.174225 4.06843 0.615841 4.4976C1.05746 4.92678 1.66987 5.13254 2.28104 5.05707C2.95477 5.13054 3.62951 4.92778 4.15114 4.4951ZM2.80904 1.21707C3.40904 1.21707 3.60904 1.69707 3.60904 2.19307L3.61704 2.19307C3.61409 2.38328 3.59806 2.57306 3.56904 2.76107C3.45919 3.34427 3.00099 3.79928 2.41704 3.90507C1.92904 3.90507 1.61704 3.52907 1.61704 2.81707C1.61704 2.10507 2.08904 1.21707 2.80904 1.21707Z" transform="translate(29.327148 9.894531)" id="Shape" fill="#003473" fill-rule="evenodd" stroke="none" />
    <path d="M0 0.900236C0.0216515 0.388926 0.448358 -0.0111114 0.96 0.000235528C1.45706 0.000235528 1.86 0.403179 1.86 0.900236C1.87135 1.41188 1.47131 1.83858 0.96 1.86024C0.438522 1.83976 0.0204734 1.42171 0 0.900236ZM1.45659 1.41413C1.32846 1.55356 1.1493 1.63514 0.96 1.64024C0.551309 1.64024 0.22 1.30893 0.22 0.900236C0.225097 0.710936 0.306672 0.531779 0.446109 0.403648C0.585545 0.275517 0.770946 0.209346 0.96 0.220236C1.14201 0.214631 1.31824 0.284473 1.447 0.413232C1.57576 0.541992 1.6456 0.718228 1.64 0.900236C1.65089 1.08929 1.58472 1.27469 1.45659 1.41413ZM0.84 1.30024L0.62 1.30024L0.62 0.500236L1.18 0.500236C1.24 0.500236 1.3 0.620236 1.3 0.680236C1.3 0.740236 1.3 0.900236 1.14 0.900236L1.3 1.24024L1.08 1.24024L0.96 0.960235L0.84 0.960235L0.84 1.30024ZM1.06 0.840236L0.84 0.840236L0.84 0.660236L1.06 0.660236L1.06 0.840236Z" transform="translate(34.496094 13.751953)" id="Shape" fill="#FFFFFF" fill-rule="evenodd" stroke="none" />
    <path d="M6.24 5.88L4.8 5.88L5.656 1.36L3.696 5.88L2.392 5.88L2.16 1.384L1.312 5.88L0 5.88L1.104 0L3.352 0L3.472 3.632L5.048 0L7.36 0L6.24 5.88L6.24 5.88L6.24 5.88Z" transform="translate(3.9199219 8.616211)" id="Path" fill="#FFFFFF" stroke="none" />
    <path d="M2.16 5.816C1.82563 5.91932 1.47796 5.97323 1.128 5.976C0.408 5.976 0 5.616 0 4.928C0.00598933 4.78306 0.0220278 4.63872 0.048 4.496L0.136 4.016L0.2 3.656L0.856 0L2.272 0L2.072 1.088L2.816 1.088L2.616 2.248L1.872 2.248L1.512 4.248C1.48964 4.31571 1.47357 4.38534 1.464 4.456C1.464 4.704 1.624 4.816 1.96 4.816C2.08947 4.8156 2.21841 4.79948 2.344 4.768L2.16 5.816Z" transform="translate(23.975586 8.583984)" id="Path" fill="#FFFFFF" stroke="none" />
    <path d="M3.584 0.976L3.584 0.816L3.856 0.064C3.792 0.064 3.768 0.064 3.744 0.064C3.70707 0.0717695 3.66893 0.0717695 3.632 0.064L3.472 0.064C3 0.064 2.672 0.272 2.208 0.864L2.368 0L0.88 0L0 4.8L1.416 4.8C1.616 3.688 1.712 3.072 1.824 2.552C2.008 1.688 2.624 1.304 3.104 1.392C3.15689 1.38222 3.21112 1.38222 3.264 1.392L3.352 1.44L3.576 1.032L3.584 0.976Z" transform="translate(26.223633 10.112305)" id="Path" fill="#003473" stroke="none" />
    <path d="M3.72 0.096C3.67083 0.068453 3.61621 0.0520653 3.56 0.048C3.496 0.048 3.448 0.048 3.448 0L3.288 0C2.816 0 2.488 0.208 2.048 0.8L2.184 0.072L0.88 0.072L0 4.872L1.44 4.872C1.96 1.944 2.16 1.416 2.856 1.416C2.904 1.416 2.968 1.416 3.04 1.416L3.2 1.464L3.72 0.104L3.72 0.096Z" transform="translate(26.583984 9.65625)" id="Path" fill="#FFFFFF" stroke="none" />
    <path d="M0.536 1.60381C0.536 2.19581 0.872 2.62781 1.64 2.92381C2.224 3.17181 2.312 3.24381 2.312 3.46781C2.312 3.69181 2.04 3.89981 1.512 3.89981C1.05735 3.90559 0.60437 3.84358 0.168 3.71581L0 4.80381L0.064 4.80381L0.312 4.87581C0.4 4.87581 0.536 4.87581 0.696 4.87581C0.961219 4.91047 1.22854 4.92651 1.496 4.92381C3.008 4.92381 3.728 4.42781 3.728 3.32381C3.728 2.66781 3.432 2.27581 2.696 1.97981C2.088 1.75581 2.024 1.68381 2.024 1.45981C2.024 1.23581 2.272 1.07581 2.744 1.07581C3.08909 1.08018 3.43365 1.10422 3.776 1.14781L3.976 0.0598106C3.55931 0.0099139 3.13948 -0.00880479 2.72 0.00381056C1.12 0.00381056 0.536 0.731811 0.536 1.60381Z" transform="translate(19.927734 9.595703)" id="Path" fill="#FFFFFF" stroke="none" />
    <path d="M2.81735 4.89613L3.98535 4.89613L4.02535 4.88013L4.02535 4.58413L4.07335 4.33613L4.12135 4.04013L4.41735 2.33613C4.48446 2.02302 4.52196 1.70428 4.52935 1.38413C4.52935 0.480134 3.89735 0.000134334 2.65735 0.000134334C2.07387 -0.00362969 1.49258 0.0717231 0.929346 0.224134L0.729346 1.28813L0.865346 1.28813L1.06535 1.21613C1.4501 1.14083 1.84129 1.10332 2.23335 1.10413C2.90535 1.10413 3.15335 1.21613 3.15335 1.53613C3.15364 1.63676 3.13743 1.73676 3.10535 1.83213C2.91081 1.82209 2.71588 1.82209 2.52135 1.83213C0.921346 1.83213 0.00134601 2.51213 0.00134601 3.67213C-0.0149586 4.02201 0.117464 4.36246 0.365891 4.60936C0.614319 4.85627 0.955579 4.98659 1.30535 4.96813C1.86787 5.00704 2.41957 4.79979 2.81735 4.40013L2.81735 4.89613ZM2.64135 2.76013C2.74516 2.75122 2.84954 2.75122 2.95335 2.76013L2.95335 2.77613C2.97984 3.07387 2.88536 3.36974 2.6912 3.597C2.49704 3.82427 2.21957 3.96381 1.92135 3.98413C1.78708 3.99376 1.65525 3.94461 1.56006 3.84942C1.46487 3.75423 1.41572 3.6224 1.42535 3.48813C1.42535 3.00813 1.84135 2.76013 2.64135 2.76013Z" transform="translate(10.806641 9.599609)" id="Shape" fill="#FFFFFF" fill-rule="evenodd" stroke="none" />
    <path d="M2.41135 5.01976C2.90657 5.01778 3.39918 4.9478 3.87535 4.81176L4.10735 3.62776C3.63655 3.82629 3.13029 3.927 2.61935 3.92376C1.78735 3.92376 1.37935 3.62776 1.37935 3.08376L1.37935 2.92376L4.23535 2.92376C4.33682 2.5371 4.39055 2.13948 4.39535 1.73976C4.40336 1.24606 4.19781 0.772943 3.83148 0.441871C3.46516 0.110798 2.97373 -0.0459894 2.48335 0.0117582C1.7719 0.0458027 1.10533 0.369345 0.63845 0.907245C0.171565 1.44514 -0.0550074 2.15059 0.0113523 2.85976C0.0113523 4.26776 0.811352 5.01976 2.41135 5.01976ZM3.07535 1.72376L3.07535 1.97176L1.49935 1.97176C1.60335 1.42776 1.95535 1.10776 2.40335 1.10776C2.57796 1.08372 2.75419 1.13873 2.88412 1.25783C3.01404 1.37693 3.08414 1.54773 3.07535 1.72376Z" transform="translate(15.620117 9.587891)" id="Shape" fill="#FFFFFF" fill-rule="evenodd" stroke="none" />
    <path d="M4.15804 4.45381C4.68293 4.02218 5.01262 3.39793 5.07318 2.72107L5.0668 2.75295C5.1049 2.5608 5.12047 2.36485 5.11318 2.16907C5.13891 1.56872 4.90374 0.986573 4.46824 0.57254C4.03274 0.158508 3.43946 -0.0469518 2.84118 0.0090672C2.08097 -0.0376016 1.33697 0.242369 0.796121 0.778634C0.255272 1.3149 -0.0310202 2.05649 0.00917716 2.81707C-0.0493157 3.4296 0.174009 4.03548 0.616052 4.46351C1.05809 4.89154 1.67085 5.09525 2.28118 5.01707C2.957 5.08837 3.63316 4.88545 4.15804 4.45381ZM2.78518 1.15307C3.38518 1.15307 3.58518 1.60907 3.58518 2.10507L3.56918 2.06507C3.57657 2.2636 3.56046 2.46232 3.52118 2.65707C3.43248 3.23681 2.99182 3.69981 2.41718 3.81707C1.92918 3.81707 1.61718 3.39307 1.61718 2.75307C1.61718 2.01707 2.06518 1.15307 2.78518 1.15307Z" transform="translate(29.686523 9.59082)" id="Shape" fill="#FFFFFF" fill-rule="evenodd" stroke="none" />
  </g>
</svg>

<svg width="39" height="24" viewBox="0 0 39 24" xmlns:xlink="http://www.w3.org/1999/xlink" xmlns="http://www.w3.org/2000/svg"><g id="maestro" stroke="none"><path d="M19.296 20.2a11.672 11.672 0 000-17.2A11.328 11.328 0 0011.6 0C5.194 0 0 5.194 0 11.6s5.194 11.6 11.6 11.6a11.33 11.33 0 007.696-3z" id="Path" fill="#009DDD"/><path d="M0 17.2A11.672 11.672 0 000 0v17.2z" transform="translate(19.296 3)" id="Path" fill="#009DDD"/><path d="M11.256 0a11.43 11.43 0 00-7.72 3 14.87 14.87 0 00-1.144 1.224h2.32c.312.384.608.8.88 1.224h-4.08c-.245.41-.47.819-.672 1.224h5.4c.184.408.36.8.496 1.224h-6.4C.2 8.306.088 8.722 0 9.144h7.048c.164.808.247 1.631.248 2.456a11.776 11.776 0 01-.584 3.68H.336c.133.41.29.819.472 1.224h5.4c-.196.42-.415.828-.656 1.224h-4.04c.267.426.561.835.88 1.224h2.32c-.362.443-.755.86-1.176 1.248a11.464 11.464 0 0019.2-8.592A11.544 11.544 0 0011.256 0z" transform="translate(15.76)" id="Path" fill="#ED1B2E"/><path d="M6.264 5.888h-1.44l.848-4.528L3.72 5.888H2.504l-.248-4.504-.944 4.504H0L1.104 0h2.28L3.4 3.64 4.976 0h2.408l-1.12 5.888z" transform="translate(3.536 8.952)" id="Path" fill="#003473"/><path d="M2.16 5.816a3.592 3.592 0 01-1.032.16C.408 5.976 0 5.616 0 4.928c.005-.145.02-.29.048-.432l.088-.48.064-.36L.856 0h1.416L2.08 1.088h.72l-.184 1.16h-.744l-.384 2v.208c0 .248.16.344.496.344a.93.93 0 00.384-.048l-.184 1.064H2.16z" transform="translate(23.616 8.952)" id="Path" fill="#003473"/><path d="M.528 1.6c0 .592.336 1.024 1.08 1.32.608.248.696.32.696.544 0 .224-.272.432-.8.432A4.456 4.456 0 01.2 3.688L0 4.8h.064l.272.048c.125.033.254.05.384.048.336 0 .608.048.8.048 1.528 0 2.232-.496 2.232-1.6a1.328 1.328 0 00-1.056-1.312c-.608-.224-.672-.296-.672-.52 0-.224.248-.384.696-.384.353.004.706.028 1.056.072l.2-1.088A8.656 8.656 0 002.696 0C1.096 0 .512.752.536 1.6H.528z" transform="translate(19.568 9.968)" id="Path" fill="#003473"/><path d="M2.794 4.968h1.192l.016-.064v-.296l.048-.248.048-.32.296-1.68c.082-.311.128-.63.136-.952C4.53.496 3.882 0 2.642 0A5.856 5.856 0 00.93.272l-.2 1.072h.136l.2-.072a5.92 5.92 0 011.168-.136c.672 0 .92.136.92.456 0 .1-.016.2-.048.296-.194-.01-.39-.01-.584 0-1.6 0-2.52.68-2.52 1.84a1.24 1.24 0 001.28 1.312 1.944 1.944 0 001.512-.568v.496zm-.112-2.136c.112-.01.224-.01.336 0v.024A1.088 1.088 0 011.986 4.04a.464.464 0 01-.52-.48c0-.48.416-.728 1.216-.728z" transform="translate(10.445 9.872)" id="Shape" fill="#003473" fill-rule="evenodd"/><path d="M2.411 5.022c.496 0 .989-.07 1.464-.208l.032-.04.248-1.208a3.504 3.504 0 01-1.488.32c-.84 0-1.264-.296-1.264-.84a.52.52 0 010-.16h2.84c.105-.373.156-.758.152-1.144A1.72 1.72 0 002.46.014 2.608 2.608 0 00.011 2.862c0 1.408.8 2.16 2.4 2.16zm.792-3.296v.248H1.611c.12-.568.472-.864.92-.864a.592.592 0 01.672.616z" transform="translate(15.236 9.914)" id="Shape" fill="#003473" fill-rule="evenodd"/><path d="M4.151 4.495a2.504 2.504 0 00.898-1.734 2.52 2.52 0 00.048-.592A2.08 2.08 0 002.825.01 2.672 2.672 0 00.009 2.85a2.032 2.032 0 002.272 2.208 2.504 2.504 0 001.87-.562zM2.81 1.217c.6 0 .8.48.8.976h.008c-.003.19-.019.38-.048.568a1.432 1.432 0 01-1.152 1.144c-.488 0-.8-.376-.8-1.088 0-.712.472-1.6 1.192-1.6z" transform="translate(29.327 9.895)" id="Shape" fill="#003473" fill-rule="evenodd"/><path d="M0 .9A.94.94 0 01.96 0a.9.9 0 01.9.9.94.94 0 01-.9.96A1 1 0 010 .9zm1.457.514a.7.7 0 01-.497.226A.74.74 0 01.22.9.7.7 0 01.96.22a.66.66 0 01.68.68.7.7 0 01-.183.514zM.84 1.3H.62V.5h.56c.06 0 .12.12.12.18s0 .22-.16.22l.16.34h-.22L.96.96H.84v.34zm.22-.46H.84V.66h.22v.18z" transform="translate(34.496 13.752)" id="Shape" fill="#FFF" fill-rule="evenodd"/><path d="M6.24 5.88H4.8l.856-4.52-1.96 4.52H2.392L2.16 1.384 1.312 5.88H0L1.104 0h2.248l.12 3.632L5.048 0H7.36L6.24 5.88z" transform="translate(3.92 8.616)" id="Path" fill="#FFF"/><path d="M2.16 5.816a3.592 3.592 0 01-1.032.16C.408 5.976 0 5.616 0 4.928a3.12 3.12 0 01.048-.432l.088-.48.064-.36L.856 0h1.416l-.2 1.088h.744l-.2 1.16h-.744l-.36 2a1.16 1.16 0 00-.048.208c0 .248.16.36.496.36a1.6 1.6 0 00.384-.048L2.16 5.816z" transform="translate(23.976 8.584)" id="Path" fill="#FFF"/><path d="M3.584.976v-.16l.272-.752h-.112a.272.272 0 01-.112 0h-.16c-.472 0-.8.208-1.264.8L2.368 0H.88L0 4.8h1.416c.2-1.112.296-1.728.408-2.248.184-.864.8-1.248 1.28-1.16a.44.44 0 01.16 0l.088.048.224-.408.008-.056z" transform="translate(26.224 10.112)" id="Path" fill="#003473"/><path d="M3.72.096a.384.384 0 00-.16-.048c-.064 0-.112 0-.112-.048h-.16c-.472 0-.8.208-1.24.8l.136-.728H.88L0 4.872h1.44c.52-2.928.72-3.456 1.416-3.456h.184l.16.048.52-1.36V.096z" transform="translate(26.584 9.656)" id="Path" fill="#FFF"/><path d="M.536 1.604c0 .592.336 1.024 1.104 1.32.584.248.672.32.672.544 0 .224-.272.432-.8.432a4.576 4.576 0 01-1.344-.184L0 4.804h.064l.248.072h.384c.265.034.533.05.8.048 1.512 0 2.232-.496 2.232-1.6 0-.656-.296-1.048-1.032-1.344-.608-.224-.672-.296-.672-.52 0-.224.248-.384.72-.384.345.004.69.028 1.032.072l.2-1.088A8.432 8.432 0 002.72.004c-1.6 0-2.184.728-2.184 1.6z" transform="translate(19.928 9.596)" id="Path" fill="#FFF"/><path d="M2.817 4.896h1.168l.04-.016v-.296l.048-.248.048-.296.296-1.704c.067-.313.105-.632.112-.952C4.53.48 3.897 0 2.657 0A6.456 6.456 0 00.93.224l-.2 1.064h.136l.2-.072a6.016 6.016 0 011.168-.112c.672 0 .92.112.92.432 0 .1-.016.2-.048.296-.194-.01-.39-.01-.584 0-1.6 0-2.52.68-2.52 1.84a1.24 1.24 0 001.304 1.296A1.944 1.944 0 002.817 4.4v.496zM2.641 2.76c.104-.009.209-.009.312 0v.016a1.112 1.112 0 01-1.032 1.208.464.464 0 01-.496-.496c0-.48.416-.728 1.216-.728z" transform="translate(10.807 9.6)" id="Shape" fill="#FFF" fill-rule="evenodd"/><path d="M2.411 5.02a5.408 5.408 0 001.464-.208l.232-1.184c-.47.198-.977.299-1.488.296-.832 0-1.24-.296-1.24-.84v-.16h2.856c.102-.387.156-.785.16-1.184A1.712 1.712 0 002.483.012 2.608 2.608 0 00.011 2.86c0 1.408.8 2.16 2.4 2.16zm.664-3.296v.248H1.5c.104-.544.456-.864.904-.864a.592.592 0 01.672.616z" transform="translate(15.62 9.588)" id="Shape" fill="#FFF" fill-rule="evenodd"/><path d="M4.158 4.454a2.536 2.536 0 00.915-1.733l-.006.032a2.52 2.52 0 00.046-.584A2.08 2.08 0 002.841.01 2.672 2.672 0 00.01 2.817a2.024 2.024 0 002.272 2.2 2.536 2.536 0 001.877-.563zm-1.373-3.3c.6 0 .8.455.8.951l-.016-.04a2.52 2.52 0 01-.048.592 1.4 1.4 0 01-1.104 1.16c-.488 0-.8-.424-.8-1.064 0-.736.448-1.6 1.168-1.6z" transform="translate(29.687 9.59)" id="Shape" fill="#FFF" fill-rule="evenodd"/></g></svg>
